!!!OTL: ACH MAEDCHEN NUR EINEN BLICK
!!!ARE: Europa, Mitteleuropa, Deutschland, Thueringen
!!!SCT: E0628
!!!YEM: Copyright 1995, estate of Helmut Schaffrath.
**kern
*ICvox
*Ivox
*M6/8
*k[f#]
*G:
{8d
=1
8.b
16a
8g
8g
8f#
8g
=2
2a
8r}
{8d
=3
8.cc
16b
8a
8a
8dd
8cc
=4
2b
8r}
{8dd
=5
8.dd
16cc
8b
8b
8a
8g
=6
4cc
8ee
8gg
8ff#}
{8ee
=7
8.dd
16ee
8dd
8cc
8b
8a
=8
2g
8r}
==
!!!AGN: Liebes - Lied, Scherz - Lied
!!!ONB: ESAC (Essen Associative Code) Database: ERK2
!!!AMT: compound duple
!!!AIN: vox
!!!EED: Helmut Schaffrath
!!!EEV: 1.0
*-
